X:1
T:Proclaim the Tidings
T:James Henry Fillmore
T:Proclaim the Tidings
T:Public Domain
T:Public Domain
C:James Henry Fillmore
Z:Public Domain
%%score ( 1 2 ) ( 3 4 )
L:1/8
M:4/4
K:Bb
V:1 treble 
V:2 treble 
V:3 bass 
V:4 bass 
V:1
 [DF]2 | [DB]2 [EA]2 [FB]2 [EG]2 | (CD) [EF]2 [DF]2 [DF]2 | [EF]2 [FG]2 [Ee]2 [Fd]2 | %4
w: 1.~Pro-|claim the tid- ings|near * and far, Go|the bless- èd sto-|
w: 2.~The|Lord is ris- en,|Oh, * re- joice Ye|grown sad and wear-|
w: 3.~Death|has no sting for|those * who love This|en Lord to fol-|
 [Gc]4 [Fc]2 [Fc]2 | [Fd]2 (cd) [Fe]2 [Fd]2 | [Ec]2 [DB]2 [^FA]2 G2 | [CF]2 [DF]2 [EF]2 [DB]2 | %8
w: ry; The grave|has giv- * en up|dead— The Lord of|and glo- ry. Sing|
w: y; Let songs|of glad- * ness swell|voice That bears that|drous stor- y. *|
w: low; A- cross|their hearts * the gloom-|grave Throws not its|y sha- dow. *|
 [Ec]4 [DB]2 ||"^Refrain" F2 | (D2 E2) (F2 D2) | [Fc]4 [Fc]4 | [Fd]2 [Fe]2 [Fd]2 [Gc]2 | %13
w: glo- ry,|glo-|Glo- * ry *|lu- jah,|Sing glo- ry, glo-|
w: |||||
w: |||||
 [FB]4 [FA]2 [EF]2 | (D2 E2) (F2 D2) | [Fc]4 [Fc]4 | [Fd]2 [Fe]2 [Fd]2 [Gc]2 | (B2 A2) [FB]2 |] %18
w: ry, Glo- ry|hal- * le- *||||
w: |||||
w: |||||
V:2
 x2 | x8 | F2 x6 | x8 | x8 | x2 F2 x4 | x6 G2 | x8 | x6 || F2 | B4 B4 | x8 | x8 | x8 | B4 B4 | x8 | %16
w: ||tell|||its|life|||ry,|hal- le-||||lu- jah.||
w: ||hearts|||each|won-||||||||||
w: ||ris-|||y|gloom-||||||||||
 x8 | F4 x2 |] %18
w: ||
w: ||
w: ||
V:3
 [B,,F,]2 | [B,,F,]2 [C,F,]2 [D,B,]2 [E,B,]2 | (A,B,) [F,B,]2 [B,,B,]2 [B,,B,]2 | %3
w: ~|~ ~ ~ ~|~ * ~ ~ ~|
 [E,B,]2 [D,=B,]2 [C,C]2 [D,B,]2 | ([E,C]2 [=E,B,]2) [F,A,]2 [F,A,]2 | %5
w: ~ ~ ~ ~|~ * ~ ~|
 [F,B,]2 (A,B,) [F,C]2 [F,B,]2 | [F,A,]2 [G,B,]2 [D,C]2 [E,B,]2 | [F,A,]2 [F,B,]2 [F,C]2 [F,B,]2 | %8
w: ~ ~ * ~ ~|~ ~ ~ ~|~ ~ ~ ~|
 (A,2 G,A,) [B,,F,]2 || F,2 | [B,,F,]2 [C,F,]2 [D,B,]2 [B,,F,]2 | [F,A,]2 [G,B,]2 [A,C]2 [F,A,]2 | %12
w: Sing * * glo-|glo-|glo- ry, glo- ry,|~ ~ ~ ~|
 B,2 [A,C]2 [B,D]2 [E,E]2 | [F,D]4 [F,C]2 [F,A,]2 | [B,,F,]2 [C,F,]2 [D,B,]2 [B,,F,]2 | %15
w: ~ ~ Sing glo-|glo- ry, glo-|ry, glo- ry, *|
 [F,A,]2 [G,B,]2 [A,C]2 [F,A,]2 | B,2 [A,C]2 [B,D]2 [E,E]2 | (D2 C2) [B,,D]2 |] %18
w: |||
V:4
 x2 | x8 | F,2 x6 | x8 | x8 | x2 F,2 x4 | x8 | x8 | F,4 x2 || F,2 | x8 | x8 | B,2 x6 | x8 | x8 | %15
w: ||~|||~|||ry,|ry,|||ry,|||
 x8 | B,2 x6 | F,4 x2 |] %18
w: |||

